X:1
T:Exalt the King
T:Exalt the King
T:Scott Werdebaugh, 2018
T:Salathial C. Kirk (1845 - ca. 1917)
T:Music © 2018 Scott Werdebaugh &amp; New Heart Music - May freely use for Christian worship or devotions with no alterations. All other rights  reserved.
C:Scott Werdebaugh, 2018
Z:Music © 2018 Scott Werdebaugh & New Heart Music - May freely use for
Z:Christian worship or devotions with no alterations. All other rights  reserved.
%%score 1 2
L:1/8
Q:1/4=128
M:4/4
K:C
V:1 treble 
V:2 bass 
V:1
"^In joyful anticipation" [EG]2 | [CE]3 [DF] [EG]2 [EG]2 | [CA]6 [DB]2 | %3
w: 1.~The|ris- en, liv- ing|Christ let|
w: 2.~He|lives, the ris- en|Christ! He|
w: 3.~Ex-|alt the ris- en|Christ! Ex-|
 [Ec][DB] [CA]2 [DB]2 [CA]2 | [DG]4 z2 [DG]2 | [CA]3 [EG] [FA]3 [EG] | [DG]3 [DF] [CE]2 z [EG] | %7
w: ev- er- y heart a-|dore! To|Him all praise and|glo- ry be! The|
w: lives \- no more to|die! He|lives e- ter- nal-|ly to reign! When|
w: alt \- the liv- ing|King! Ex-|alt the Lord Im-|man- u- el! While|
 [Ec]3 [DB] [CA]2 [EG]2 | [FA]2 [DB]2 [Ec]3 [Fd] | [Ge]2 [Fd]2 !fermata![Ec]2 z"^rit." [EG] | %10
w: Christ of yes- ter-|day, to- day and|ev- er- more, The|
w: all the saints re-|deemed, and an- gel|hosts on high Shall|
w: sweet- ly in our|hearts the Eas- ter|car- ols ring, Oh,|
 [DF]2 [EG]2 [FA]2 [Fd]2 | [Ec]3 [DB][Q:1/4=116] !fermata![Ec]3 z || %12
w: ev- er- last- ing|Lord is He.|
w: swell the hal- le-|lu- jah strain.|
w: let Him there su-|preme- ly dwell.|
"^Refrain"[Q:1/4=128]"^a tempo" [Ec]3 [DB] [CA]3 [EG] | [DG]3 [DF] [CE]2 [EG]2 | %14
w: ||
w: Glo- ry be and|ma- jes- ty, And|
w: ||
 [FA]2 [Ec]2 [DB]3 [CA] | [EG]4 z2 [DB]2 | [Ec]2 [DB]2 [CA]2 [EG]2 | [DA]3 [D^F] [DG]3 [CE] | %18
w: ||||
w: praise for- ev- er-|more, To|Thee, our King and|Con- quer- or, To|
w: ||||
 [C=F]2 [EG]2 [FA]2 [Fd]2 | [Ec]3 [DB] [DB]4 | !fermata![Ec]4 z2"^Play 3 times" :| %21
w: |||
w: Thee our might- y|Prince of Pow-|er.|
w: |||
V:2
 [C,C]2 | [C,G,]3 [G,B,] [C,C]2 [C,C]2 | [F,A,]6 [G,,G,]2 | %3
 [C,G,][G,,G,] [F,,F,]2 [G,,G,]2 [D,^F,]2 | [G,,B,]4 z2 [G,B,]2 | [F,A,]3 [C,C] [F,C]3 [C,C] | %6
 [G,B,]3 [G,B,] [C,G,]2 z [C,C] | [C,G,]3 [G,,G,] [F,,F,]2 [C,C]2 | %8
 [F,C]2 [G,,G,]2 [C,G,]3 [G,B,] | [C,C]2 [G,,B,]2 !fermata![C,G,]2 z [C,C] | %10
 [G,B,]2 [C,C]2 [F,C]2 [G,B,]2 | [C,G,]3 [G,,G,] !fermata![C,G,]3 z || %12
 [C,G,]3 [G,,G,] [F,,F,]3 [B,,C] | [G,B,]3 [G,B,] [C,G,]2 [C,C]2 | %14
 [F,C]2 [C,G,]2 [G,,G,]3 [F,,F,] | [C,C]4 z2 [G,,G,]2 | [C,G,]2 [G,,G,]2 [F,,F,]2 [C,C]2 | %17
 [D,^F,]3 [D,A,] [G,B,]3 [C,G,] | [F,A,]2 [C,C]2 [F,C]2 [G,B,]2 | [C,G,]3 [G,,G,] [G,,F,]4 | %20
 !fermata![C,G,]4 z2"^Play 3 times" :| %21

